X: 33481
T: Ragged Hank Of Yarn, The
R: reel
M: 4/4
K: Dmixolydian
D3E FGAB|c2dB cAGE|D3E FGAB|cAGE EDCA,|
D3E FGAB|c2dB cAGE|D3E FGAB|cAGE EDD2:|
d3c A2AB|c2ce dcAc|d3c A2Ac|BGcG EDD2|
d3c A2AB|c2ce dcAc|d2fd A2Ac|B2cB BAGE||

